www/assets/icons/chair_alt.svg

<svg xmlns="http://www.w3.org/2000/svg" width="24" height="24" viewBox="0 0 24 24" fill='currentColor'><path d="M17 10c1.1 0 2-.9 2-2V5c0-1.1-.9-2-2-2H7c-1.1 0-2 .9-2 2v3c0 1.1.9 2 2 2h1v2H7c-1.1 0-2 .9-2 2v7h2v-3h10v3h2v-7c0-1.1-.9-2-2-2h-1v-2zM7 8V5h10v3zm10 8H7v-2h10zm-3-4h-4v-2h4z"/></svg>

<svg width="24" height="24" viewBox="0 0 24 24" xmlns="http://www.w3.org/2000/svg" fill='currentColor'><path d="M17 10C18.1 10 19 9.1 19 8V5C19 3.9 18.1 3 17 3H7C5.9 3 5 3.9 5 5V8C5 9.1 5.9 10 7 10H8V12H7C5.9 12 5 12.9 5 14V21H7V18H17V21H19V14C19 12.9 18.1 12 17 12H16V10H17ZM7 8V5H17V8H7ZM17 16H7V14H17V16ZM14 12H10V10H14V12Z"/></svg>
